X: 27506
T: Mom's
R: jig
M: 6/8
K: Adorian
|:EAA AGA|BAA A2G|EAA ABc|Bdc BAG|
EAA AGA|BAA Aaf|~g3 gfe|dBA GAB:|
|:AaA g2e|~f3 edB|Aaf g2e|dBA GAB|
AaA g2e|~f3 eaf|~g3 gfe|dBA GAB:|
|:A,3 ABc|~B3 A2B,|A,3 ABc|Bdc B2B,|
A,3 ABc|~B3 Aaf|~g3 gfe|dBA GAB:|
|:AaA g2e|~f3 edB|Aaf g2e|dBA GAB|
AaA g2e|~f3 eaf|~g3 gfe|dBA GAB:|

